luts/USTA-TRT2-Belgesel.cube
# USTA TRT-2 Belgesel
# Creative LUT — Input LUT'un USTUNE. S-Log decode yok.
# Generated by USTA Colorist
LUT_3D_SIZE 9
DOMAIN_MIN 0.0 0.0 0.0
DOMAIN_MAX 1.0 1.0 1.0
0.000000 0.000000 0.000000
0.112978 0.000000 0.000000
0.267865 0.000000 0.000000
0.423324 0.000000 0.000000
0.579355 0.000000 0.000000
0.735959 0.000000 0.000000
0.879855 0.000000 0.000000
1.000000 0.000000 0.000000
1.000000 0.000000 0.000000
0.000000 0.103457 0.000000
0.106869 0.101578 0.000000
0.261756 0.099691 0.000000
0.417215 0.097797 0.000000
0.573246 0.095897 0.000000
0.729850 0.093989 0.000000
0.873746 0.092237 0.000000
1.000000 0.090662 0.000000
1.000000 0.089083 0.000000
0.000000 0.248770 0.000000
0.100738 0.246890 0.000000
0.255625 0.245004 0.000000
0.411084 0.243110 0.000000
0.567115 0.241209 0.000000
0.723719 0.239302 0.000000
0.867615 0.237549 0.000000
0.996887 0.235975 0.000000
1.000000 0.234395 0.000000
0.000000 0.394601 0.000000
0.094585 0.392722 0.000000
0.249472 0.390835 0.000000
0.404931 0.388941 0.000000
0.560962 0.387041 0.000000
0.717566 0.385133 0.000000
0.861462 0.383381 0.000000
0.990734 0.381806 0.000000
1.000000 0.380227 0.000000
0.000000 0.540951 0.000000
0.088411 0.539072 0.000000
0.243297 0.537185 0.000000
0.398756 0.535292 0.000000
0.554788 0.533391 0.000000
0.711391 0.531484 0.000000
0.855288 0.529731 0.000000
0.984560 0.528156 0.000000
1.000000 0.526577 0.000000
0.000000 0.687821 0.000000
0.082214 0.685941 0.000000
0.237101 0.684054 0.000000
0.392560 0.682161 0.000000
0.548591 0.680260 0.000000
0.705195 0.678353 0.000000
0.849091 0.676600 0.000000
0.978363 0.675025 0.000000
1.000000 0.673446 0.000000
0.000000 0.827901 0.000000
0.076304 0.826021 0.000000
0.231191 0.824135 0.000000
0.386650 0.822241 0.000000
0.542681 0.820340 0.000000
0.699285 0.818433 0.000000
0.843181 0.816680 0.000000
0.972453 0.815106 0.000000
1.000000 0.813526 0.000000
0.000000 0.949125 0.000000
0.071189 0.947245 0.000000
0.226076 0.945359 0.000000
0.381535 0.943465 0.000000
0.537566 0.941565 0.000000
0.694170 0.939657 0.000000
0.838067 0.937904 0.000000
0.967338 0.936330 0.000000
1.000000 0.934751 0.000000
0.000000 1.000000 0.000000
0.066060 1.000000 0.000000
0.220947 1.000000 0.000000
0.376406 1.000000 0.000000
0.532437 1.000000 0.000000
0.689041 1.000000 0.000000
0.832937 1.000000 0.000000
0.962209 1.000000 0.000000
1.000000 1.000000 0.000000
0.000000 0.000000 0.105186
0.112377 0.000000 0.103306
0.267263 0.000000 0.101420
0.422722 0.000000 0.099526
0.578754 0.000000 0.097626
0.735357 0.000000 0.095718
0.879254 0.000000 0.093965
1.000000 0.000000 0.092391
1.000000 0.000000 0.090811
0.000000 0.102856 0.099077
0.106268 0.100976 0.097197
0.261154 0.099090 0.095311
0.416613 0.097196 0.093417
0.572645 0.095296 0.091517
0.729248 0.093388 0.089609
0.873145 0.091635 0.087856
1.000000 0.090061 0.086282
1.000000 0.088482 0.084702
0.000000 0.248169 0.092946
0.100137 0.246289 0.091066
0.255024 0.244402 0.089180
0.410483 0.242509 0.087286
0.566514 0.240608 0.085386
0.723118 0.238701 0.083478
0.867014 0.236948 0.081725
0.996286 0.235373 0.080151
1.000000 0.233794 0.078571
0.000000 0.394000 0.086793
0.093984 0.392120 0.084914
0.248871 0.390234 0.083027
0.404330 0.388340 0.081133
0.560361 0.386440 0.079233
0.716965 0.384532 0.077325
0.860861 0.382779 0.075573
0.990133 0.381205 0.073998
1.000000 0.379625 0.072419
0.000000 0.540350 0.080619
0.087809 0.538471 0.078739
0.242696 0.536584 0.076852
0.398155 0.534690 0.074959
0.554186 0.532790 0.073058
0.710790 0.530882 0.071151
0.854687 0.529130 0.069398
0.983958 0.527555 0.067823
1.000000 0.525976 0.066244
0.000000 0.687219 0.074422
0.081613 0.685340 0.072542
0.236500 0.683453 0.070656
0.391959 0.681559 0.068762
0.547990 0.679659 0.066862
0.704594 0.677751 0.064954
0.848490 0.675999 0.063201
0.977762 0.674424 0.061627
1.000000 0.672845 0.060047
0.000000 0.827299 0.068512
0.075703 0.825420 0.066632
0.230589 0.823533 0.064746
0.386048 0.821640 0.062852
0.542080 0.819739 0.060951
0.698683 0.817832 0.059044
0.842580 0.816079 0.057291
0.971852 0.814504 0.055717
1.000000 0.812925 0.054137
0.000000 0.948524 0.063397
0.070588 0.946644 0.061518
0.225475 0.944758 0.059631
0.380934 0.942864 0.057737
0.536965 0.940963 0.055837
0.693569 0.939056 0.053929
0.837465 0.937303 0.052177
0.966737 0.935729 0.050602
1.000000 0.934149 0.049023
0.000000 1.000000 0.058268
0.065459 1.000000 0.056388
0.220346 1.000000 0.054502
0.375805 1.000000 0.052608
0.531836 1.000000 0.050708
0.688440 1.000000 0.048800
0.832336 1.000000 0.047047
0.961608 1.000000 0.045473
1.000000 1.000000 0.043893
0.000000 0.000000 0.252220
0.111773 0.000000 0.250340
0.266660 0.000000 0.248454
0.422119 0.000000 0.246560
0.578150 0.000000 0.244660
0.734754 0.000000 0.242752
0.878651 0.000000 0.240999
1.000000 0.000000 0.239425
1.000000 0.000000 0.237846
0.000000 0.102253 0.246111
0.105664 0.100373 0.244231
0.260551 0.098486 0.242345
0.416010 0.096593 0.240451
0.572041 0.094692 0.238551
0.728645 0.092785 0.236643
0.872542 0.091032 0.234890
1.000000 0.089457 0.233316
1.000000 0.087878 0.231737
0.000000 0.247565 0.239980
0.099534 0.245686 0.238101
0.254420 0.243799 0.236214
0.409879 0.241905 0.234320
0.565911 0.240005 0.232420
0.722514 0.238097 0.230512
0.866411 0.236345 0.228760
0.995682 0.234770 0.227185
1.000000 0.233191 0.225606
0.000000 0.393397 0.233827
0.093381 0.391517 0.231948
0.248267 0.389630 0.230061
0.403726 0.387737 0.228168
0.559758 0.385836 0.226267
0.716361 0.383929 0.224359
0.860258 0.382176 0.222607
0.989530 0.380601 0.221032
1.000000 0.379022 0.219453
0.000000 0.539747 0.227653
0.087206 0.537867 0.225773
0.242093 0.535981 0.223886
0.397552 0.534087 0.221993
0.553583 0.532186 0.220092
0.710187 0.530279 0.218185
0.854083 0.528526 0.216432
0.983355 0.526952 0.214857
1.000000 0.525372 0.213278
0.000000 0.686616 0.221456
0.081010 0.684736 0.219577
0.235896 0.682850 0.217690
0.391355 0.680956 0.215796
0.547387 0.679056 0.213896
0.703990 0.677148 0.211988
0.847887 0.675395 0.210236
0.977158 0.673821 0.208661
1.000000 0.672241 0.207082
0.000000 0.826696 0.215546
0.075099 0.824816 0.213666
0.229986 0.822930 0.211780
0.385445 0.821036 0.209886
0.541476 0.819136 0.207986
0.698080 0.817228 0.206078
0.841977 0.815476 0.204325
0.971248 0.813901 0.202751
1.000000 0.812322 0.201172
0.000000 0.947920 0.210431
0.069985 0.946041 0.208552
0.224871 0.944154 0.206665
0.380330 0.942261 0.204772
0.536362 0.940360 0.202871
0.692965 0.938453 0.200964
0.836862 0.936700 0.199211
0.966134 0.935125 0.197636
1.000000 0.933546 0.196057
0.000000 1.000000 0.205302
0.064856 1.000000 0.203423
0.219742 1.000000 0.201536
0.375201 1.000000 0.199642
0.531233 1.000000 0.197742
0.687836 1.000000 0.195834
0.831733 1.000000 0.194082
0.961004 1.000000 0.192507
1.000000 1.000000 0.190928
0.000000 0.000000 0.399766
0.111168 0.000000 0.397887
0.266055 0.000000 0.396000
0.421514 0.000000 0.394106
0.577545 0.000000 0.392206
0.734149 0.000000 0.390298
0.878045 0.000000 0.388546
1.000000 0.000000 0.386971
1.000000 0.000000 0.385392
0.000000 0.101647 0.393657
0.105059 0.099768 0.391778
0.259946 0.097881 0.389891
0.415405 0.095987 0.387997
0.571436 0.094087 0.386097
0.728040 0.092179 0.384189
0.871936 0.090427 0.382437
1.000000 0.088852 0.380862
1.000000 0.087273 0.379283
0.000000 0.246960 0.387526
0.098928 0.245080 0.385647
0.253815 0.243193 0.383760
0.409274 0.241300 0.381866
0.565305 0.239399 0.379966
0.721909 0.237492 0.378058
0.865805 0.235739 0.376306
0.995077 0.234164 0.374731
1.000000 0.232585 0.373152
0.000000 0.392791 0.381374
0.092775 0.390911 0.379494
0.247662 0.389025 0.377607
0.403121 0.387131 0.375714
0.559152 0.385231 0.373813
0.715756 0.383323 0.371906
0.859652 0.381570 0.370153
0.988924 0.379996 0.368578
1.000000 0.378417 0.366999
0.000000 0.539141 0.375199
0.086601 0.537262 0.373319
0.241487 0.535375 0.371433
0.396946 0.533482 0.369539
0.552978 0.531581 0.367638
0.709581 0.529673 0.365731
0.853478 0.527921 0.363978
0.982749 0.526346 0.362404
1.000000 0.524767 0.360824
0.000000 0.686010 0.369002
0.080404 0.684131 0.367123
0.235291 0.682244 0.365236
0.390750 0.680351 0.363342
0.546781 0.678450 0.361442
0.703385 0.676543 0.359534
0.847281 0.674790 0.357782
0.976553 0.673215 0.356207
1.000000 0.671636 0.354628
0.000000 0.826091 0.363092
0.074494 0.824211 0.361213
0.229381 0.822324 0.359326
0.384840 0.820431 0.357432
0.540871 0.818530 0.355532
0.697475 0.816623 0.353624
0.841371 0.814870 0.351872
0.970643 0.813295 0.350297
1.000000 0.811716 0.348718
0.000000 0.947315 0.357978
0.069379 0.945435 0.356098
0.224266 0.943549 0.354211
0.379725 0.941655 0.352318
0.535756 0.939755 0.350417
0.692360 0.937847 0.348510
0.836256 0.936094 0.346757
0.965528 0.934520 0.345182
1.000000 0.932940 0.343603
0.000000 1.000000 0.352848
0.064250 1.000000 0.350969
0.219137 1.000000 0.349082
0.374596 1.000000 0.347188
0.530627 1.000000 0.345288
0.687231 1.000000 0.343380
0.831127 1.000000 0.341628
0.960399 1.000000 0.340053
1.000000 1.000000 0.338474
0.000000 0.000000 0.547824
0.110560 0.000000 0.545945
0.265447 0.000000 0.544058
0.420906 0.000000 0.542164
0.576937 0.000000 0.540264
0.733541 0.000000 0.538356
0.877437 0.000000 0.536604
1.000000 0.000000 0.535029
1.000000 0.000000 0.533450
0.000000 0.101040 0.541715
0.104451 0.099160 0.539836
0.259338 0.097273 0.537949
0.414797 0.095380 0.536055
0.570828 0.093479 0.534155
0.727432 0.091572 0.532247
0.871329 0.089819 0.530495
1.000000 0.088244 0.528920
1.000000 0.086665 0.527341
0.000000 0.246352 0.535584
0.098320 0.244472 0.533705
0.253207 0.242586 0.531818
0.408666 0.240692 0.529925
0.564697 0.238792 0.528024
0.721301 0.236884 0.526117
0.865198 0.235132 0.524364
0.994469 0.233557 0.522789
1.000000 0.231978 0.521210
0.000000 0.392184 0.529432
0.092168 0.390304 0.527552
0.247054 0.388417 0.525665
0.402513 0.386524 0.523772
0.558545 0.384623 0.521871
0.715148 0.382716 0.519964
0.859045 0.380963 0.518211
0.988317 0.379388 0.516636
1.000000 0.377809 0.515057
0.000000 0.538534 0.523257
0.085993 0.536654 0.521377
0.240880 0.534768 0.519491
0.396339 0.532874 0.517597
0.552370 0.530973 0.515697
0.708974 0.529066 0.513789
0.852870 0.527313 0.512036
0.982142 0.525739 0.510462
1.000000 0.524159 0.508882
0.000000 0.685403 0.517060
0.079796 0.683523 0.515181
0.234683 0.681637 0.513294
0.390142 0.679743 0.511401
0.546173 0.677843 0.509500
0.702777 0.675935 0.507593
0.846674 0.674182 0.505840
0.975945 0.672608 0.504265
1.000000 0.671028 0.502686
0.000000 0.825483 0.511150
0.073886 0.823603 0.509271
0.228773 0.821717 0.507384
0.384232 0.819823 0.505490
0.540263 0.817923 0.503590
0.696867 0.816015 0.501682
0.840763 0.814262 0.499930
0.970035 0.812688 0.498355
1.000000 0.811109 0.496776
0.000000 0.946707 0.506036
0.068772 0.944828 0.504156
0.223658 0.942941 0.502269
0.379117 0.941048 0.500376
0.535149 0.939147 0.498475
0.691752 0.937240 0.496568
0.835649 0.935487 0.494815
0.964921 0.933912 0.493240
1.000000 0.932333 0.491661
0.000000 1.000000 0.500906
0.063642 1.000000 0.499027
0.218529 1.000000 0.497140
0.373988 1.000000 0.495247
0.530019 1.000000 0.493346
0.686623 1.000000 0.491438
0.830520 1.000000 0.489686
0.959791 1.000000 0.488111
1.000000 1.000000 0.486532
0.000000 0.000000 0.696394
0.109951 0.000000 0.694515
0.264837 0.000000 0.692628
0.420296 0.000000 0.690735
0.576328 0.000000 0.688834
0.732931 0.000000 0.686926
0.876828 0.000000 0.685174
1.000000 0.000000 0.683599
1.000000 0.000000 0.682020
0.000000 0.100430 0.690285
0.103842 0.098550 0.688406
0.258728 0.096664 0.686519
0.414187 0.094770 0.684626
0.570219 0.092870 0.682725
0.726822 0.090962 0.680817
0.870719 0.089209 0.679065
0.999991 0.087635 0.677490
1.000000 0.086055 0.675911
0.000000 0.245742 0.684154
0.097711 0.243863 0.682275
0.252598 0.241976 0.680388
0.408057 0.240083 0.678495
0.564088 0.238182 0.676594
0.720691 0.236275 0.674687
0.864588 0.234522 0.672934
0.993860 0.232947 0.671359
1.000000 0.231368 0.669780
0.000000 0.391574 0.678002
0.091558 0.389694 0.676122
0.246445 0.387808 0.674235
0.401904 0.385914 0.672342
0.557935 0.384013 0.670441
0.714539 0.382106 0.668534
0.858435 0.380353 0.666781
0.987707 0.378779 0.665206
1.000000 0.377199 0.663627
0.000000 0.537924 0.671827
0.085383 0.536044 0.669947
0.240270 0.534158 0.668061
0.395729 0.532264 0.666167
0.551760 0.530364 0.664267
0.708364 0.528456 0.662359
0.852261 0.526703 0.660606
0.981532 0.525129 0.659032
1.000000 0.523550 0.657453
0.000000 0.684793 0.665630
0.079187 0.682914 0.663751
0.234074 0.681027 0.661864
0.389533 0.679133 0.659971
0.545564 0.677233 0.658070
0.702167 0.675325 0.656163
0.846064 0.673573 0.654410
0.975336 0.671998 0.652835
1.000000 0.670419 0.651256
0.000000 0.824873 0.659720
0.073277 0.822994 0.657841
0.228163 0.821107 0.655954
0.383622 0.819214 0.654061
0.539654 0.817313 0.652160
0.696257 0.815406 0.650252
0.840154 0.813653 0.648500
0.969426 0.812078 0.646925
1.000000 0.810499 0.645346
0.000000 0.946098 0.654606
0.068162 0.944218 0.652726
0.223049 0.942331 0.650839
0.378508 0.940438 0.648946
0.534539 0.938537 0.647045
0.691143 0.936630 0.645138
0.835039 0.934877 0.643385
0.964311 0.933303 0.641811
1.000000 0.931723 0.640231
0.000000 1.000000 0.649476
0.063033 1.000000 0.647597
0.217920 1.000000 0.645710
0.373379 1.000000 0.643817
0.529410 1.000000 0.641916
0.686013 1.000000 0.640009
0.829910 1.000000 0.638256
0.959182 1.000000 0.636681
1.000000 1.000000 0.635102
0.000000 0.000000 0.842030
0.109353 0.000000 0.840151
0.264240 0.000000 0.838264
0.419699 0.000000 0.836371
0.575730 0.000000 0.834470
0.732334 0.000000 0.832562
0.876230 0.000000 0.830810
1.000000 0.000000 0.829235
1.000000 0.000000 0.827656
0.000000 0.099832 0.835921
0.103244 0.097953 0.834042
0.258131 0.096066 0.832155
0.413590 0.094173 0.830262
0.569621 0.092272 0.828361
0.726225 0.090364 0.826453
0.870121 0.088612 0.824701
0.999393 0.087037 0.823126
1.000000 0.085458 0.821547
0.000000 0.245145 0.829790
0.097113 0.243265 0.827911
0.252000 0.241379 0.826024
0.407459 0.239485 0.824131
0.563490 0.237584 0.822230
0.720094 0.235677 0.820323
0.863990 0.233924 0.818570
0.993262 0.232350 0.816995
1.000000 0.230770 0.815416
0.000000 0.390976 0.823638
0.090960 0.389097 0.821758
0.245847 0.387210 0.819871
0.401306 0.385316 0.817978
0.557337 0.383416 0.816077
0.713941 0.381508 0.814170
0.857838 0.379756 0.812417
0.987109 0.378181 0.810842
1.000000 0.376602 0.809263
0.000000 0.537326 0.817463
0.084786 0.535447 0.815583
0.239672 0.533560 0.813697
0.395131 0.531667 0.811803
0.551163 0.529766 0.809903
0.707766 0.527859 0.807995
0.851663 0.526106 0.806242
0.980935 0.524531 0.804668
1.000000 0.522952 0.803089
0.000000 0.684196 0.811266
0.078589 0.682316 0.809387
0.233476 0.680429 0.807500
0.388935 0.678536 0.805607
0.544966 0.676635 0.803706
0.701570 0.674728 0.801799
0.845466 0.672975 0.800046
0.974738 0.671400 0.798471
1.000000 0.669821 0.796892
0.000000 0.824276 0.805356
0.072679 0.822396 0.803477
0.227566 0.820510 0.801590
0.383025 0.818616 0.799697
0.539056 0.816715 0.797796
0.695660 0.814808 0.795888
0.839556 0.813055 0.794136
0.968828 0.811481 0.792561
1.000000 0.809901 0.790982
0.000000 0.945500 0.800242
0.067564 0.943620 0.798362
0.222451 0.941734 0.796476
0.377910 0.939840 0.794582
0.533941 0.937940 0.792681
0.690545 0.936032 0.790774
0.834442 0.934279 0.789021
0.963713 0.932705 0.787447
1.000000 0.931126 0.785867
0.000000 1.000000 0.795112
0.062435 1.000000 0.793233
0.217322 1.000000 0.791346
0.372781 1.000000 0.789453
0.528812 1.000000 0.787552
0.685416 1.000000 0.785645
0.829312 1.000000 0.783892
0.958584 1.000000 0.782317
1.000000 1.000000 0.780738
0.000000 0.000000 0.964650
0.108850 0.000000 0.962770
0.263737 0.000000 0.960884
0.419196 0.000000 0.958990
0.575227 0.000000 0.957090
0.731831 0.000000 0.955182
0.875727 0.000000 0.953429
1.000000 0.000000 0.951855
1.000000 0.000000 0.950275
0.000000 0.099329 0.958541
0.102741 0.097450 0.956661
0.257628 0.095563 0.954775
0.413087 0.093669 0.952881
0.569118 0.091769 0.950981
0.725722 0.089861 0.949073
0.869618 0.088109 0.947320
0.998890 0.086534 0.945746
1.000000 0.084955 0.944166
0.000000 0.244642 0.952410
0.096610 0.242762 0.950530
0.251497 0.240875 0.948644
0.406956 0.238982 0.946750
0.562987 0.237081 0.944850
0.719591 0.235174 0.942942
0.863487 0.233421 0.941189
0.992759 0.231846 0.939615
1.000000 0.230267 0.938036
0.000000 0.390473 0.946257
0.090457 0.388593 0.944378
0.245344 0.386707 0.942491
0.400803 0.384813 0.940597
0.556834 0.382913 0.938697
0.713438 0.381005 0.936789
0.857334 0.379252 0.935037
0.986606 0.377678 0.933462
1.000000 0.376099 0.931883
0.000000 0.536823 0.940083
0.084283 0.534944 0.938203
0.239169 0.533057 0.936316
0.394628 0.531163 0.934423
0.550660 0.529263 0.932522
0.707263 0.527355 0.930615
0.851160 0.525603 0.928862
0.980431 0.524028 0.927287
1.000000 0.522449 0.925708
0.000000 0.683692 0.933886
0.078086 0.681813 0.932006
0.232973 0.679926 0.930120
0.388432 0.678033 0.928226
0.544463 0.676132 0.926326
0.701067 0.674225 0.924418
0.844963 0.672472 0.922665
0.974235 0.670897 0.921091
1.000000 0.669318 0.919512
0.000000 0.823773 0.927976
0.072176 0.821893 0.926096
0.227063 0.820006 0.924210
0.382522 0.818113 0.922316
0.538553 0.816212 0.920416
0.695157 0.814305 0.918508
0.839053 0.812552 0.916755
0.968325 0.810977 0.915181
1.000000 0.809398 0.913601
0.000000 0.944997 0.922861
0.067061 0.943117 0.920982
0.221948 0.941231 0.919095
0.377407 0.939337 0.917202
0.533438 0.937437 0.915301
0.690042 0.935529 0.913393
0.833938 0.933776 0.911641
0.963210 0.932202 0.910066
1.000000 0.930622 0.908487
0.000000 1.000000 0.917732
0.061932 1.000000 0.915852
0.216819 1.000000 0.913966
0.372278 1.000000 0.912072
0.528309 1.000000 0.910172
0.684913 1.000000 0.908264
0.828809 1.000000 0.906511
0.958081 1.000000 0.904937
1.000000 1.000000 0.903358
0.000000 0.000000 1.000000
0.108345 0.000000 1.000000
0.263232 0.000000 1.000000
0.418691 0.000000 1.000000
0.574722 0.000000 1.000000
0.731326 0.000000 1.000000
0.875222 0.000000 1.000000
1.000000 0.000000 1.000000
1.000000 0.000000 1.000000
0.000000 0.098825 1.000000
0.102236 0.096945 1.000000
0.257123 0.095058 1.000000
0.412582 0.093165 1.000000
0.568613 0.091264 1.000000
0.725217 0.089357 1.000000
0.869113 0.087604 1.000000
0.998385 0.086029 1.000000
1.000000 0.084450 1.000000
0.000000 0.244137 1.000000
0.096105 0.242257 1.000000
0.250992 0.240371 1.000000
0.406451 0.238477 1.000000
0.562482 0.236577 1.000000
0.719086 0.234669 1.000000
0.862983 0.232916 1.000000
0.992254 0.231342 1.000000
1.000000 0.229763 1.000000
0.000000 0.389968 1.000000
0.089953 0.388089 1.000000
0.244839 0.386202 1.000000
0.400298 0.384309 1.000000
0.556330 0.382408 1.000000
0.712933 0.380501 1.000000
0.856830 0.378748 1.000000
0.986102 0.377173 1.000000
1.000000 0.375594 1.000000
0.000000 0.536319 1.000000
0.083778 0.534439 1.000000
0.238665 0.532552 1.000000
0.394124 0.530659 1.000000
0.550155 0.528758 1.000000
0.706759 0.526851 1.000000
0.850655 0.525098 1.000000
0.979927 0.523523 1.000000
1.000000 0.521944 1.000000
0.000000 0.683188 1.000000
0.077581 0.681308 1.000000
0.232468 0.679422 1.000000
0.387927 0.677528 1.000000
0.543958 0.675627 1.000000
0.700562 0.673720 1.000000
0.844459 0.671967 1.000000
0.973730 0.670393 1.000000
1.000000 0.668813 1.000000
0.000000 0.823268 1.000000
0.071671 0.821388 1.000000
0.226558 0.819502 1.000000
0.382017 0.817608 1.000000
0.538048 0.815708 1.000000
0.694652 0.813800 1.000000
0.838548 0.812047 1.000000
0.967820 0.810473 1.000000
1.000000 0.808894 1.000000
0.000000 0.944492 1.000000
0.066557 0.942613 1.000000
0.221443 0.940726 1.000000
0.376902 0.938833 1.000000
0.532934 0.936932 1.000000
0.689537 0.935024 1.000000
0.833434 0.933272 1.000000
0.962706 0.931697 1.000000
1.000000 0.930118 1.000000
0.000000 1.000000 1.000000
0.061427 1.000000 1.000000
0.216314 1.000000 1.000000
0.371773 1.000000 1.000000
0.527804 1.000000 1.000000
0.684408 1.000000 1.000000
0.828305 1.000000 1.000000
0.957576 1.000000 1.000000
1.000000 1.000000 1.000000
