luts/USTA-TRT2-Belgesel.cube
# USTA TRT-2 Belgesel
# Creative LUT — Input LUT'un USTUNE. S-Log decode yok.
# Generated by USTA Colorist
LUT_3D_SIZE 5
DOMAIN_MIN 0.0 0.0 0.0
DOMAIN_MAX 1.0 1.0 1.0
0.000000 0.000000 0.000000
0.267865 0.000000 0.000000
0.579355 0.000000 0.000000
0.879855 0.000000 0.000000
1.000000 0.000000 0.000000
0.000000 0.248770 0.000000
0.255625 0.245004 0.000000
0.567115 0.241209 0.000000
0.867615 0.237549 0.000000
1.000000 0.234395 0.000000
0.000000 0.540951 0.000000
0.243297 0.537185 0.000000
0.554788 0.533391 0.000000
0.855288 0.529731 0.000000
1.000000 0.526577 0.000000
0.000000 0.827901 0.000000
0.231191 0.824135 0.000000
0.542681 0.820340 0.000000
0.843181 0.816680 0.000000
1.000000 0.813526 0.000000
0.000000 1.000000 0.000000
0.220947 1.000000 0.000000
0.532437 1.000000 0.000000
0.832937 1.000000 0.000000
1.000000 1.000000 0.000000
0.000000 0.000000 0.252220
0.266660 0.000000 0.248454
0.578150 0.000000 0.244660
0.878651 0.000000 0.240999
1.000000 0.000000 0.237846
0.000000 0.247565 0.239980
0.254420 0.243799 0.236214
0.565911 0.240005 0.232420
0.866411 0.236345 0.228760
1.000000 0.233191 0.225606
0.000000 0.539747 0.227653
0.242093 0.535981 0.223886
0.553583 0.532186 0.220092
0.854083 0.528526 0.216432
1.000000 0.525372 0.213278
0.000000 0.826696 0.215546
0.229986 0.822930 0.211780
0.541476 0.819136 0.207986
0.841977 0.815476 0.204325
1.000000 0.812322 0.201172
0.000000 1.000000 0.205302
0.219742 1.000000 0.201536
0.531233 1.000000 0.197742
0.831733 1.000000 0.194082
1.000000 1.000000 0.190928
0.000000 0.000000 0.547824
0.265447 0.000000 0.544058
0.576937 0.000000 0.540264
0.877437 0.000000 0.536604
1.000000 0.000000 0.533450
0.000000 0.246352 0.535584
0.253207 0.242586 0.531818
0.564697 0.238792 0.528024
0.865198 0.235132 0.524364
1.000000 0.231978 0.521210
0.000000 0.538534 0.523257
0.240880 0.534768 0.519491
0.552370 0.530973 0.515697
0.852870 0.527313 0.512036
1.000000 0.524159 0.508882
0.000000 0.825483 0.511150
0.228773 0.821717 0.507384
0.540263 0.817923 0.503590
0.840763 0.814262 0.499930
1.000000 0.811109 0.496776
0.000000 1.000000 0.500906
0.218529 1.000000 0.497140
0.530019 1.000000 0.493346
0.830520 1.000000 0.489686
1.000000 1.000000 0.486532
0.000000 0.000000 0.842030
0.264240 0.000000 0.838264
0.575730 0.000000 0.834470
0.876230 0.000000 0.830810
1.000000 0.000000 0.827656
0.000000 0.245145 0.829790
0.252000 0.241379 0.826024
0.563490 0.237584 0.822230
0.863990 0.233924 0.818570
1.000000 0.230770 0.815416
0.000000 0.537326 0.817463
0.239672 0.533560 0.813697
0.551163 0.529766 0.809903
0.851663 0.526106 0.806242
1.000000 0.522952 0.803089
0.000000 0.824276 0.805356
0.227566 0.820510 0.801590
0.539056 0.816715 0.797796
0.839556 0.813055 0.794136
1.000000 0.809901 0.790982
0.000000 1.000000 0.795112
0.217322 1.000000 0.791346
0.528812 1.000000 0.787552
0.829312 1.000000 0.783892
1.000000 1.000000 0.780738
0.000000 0.000000 1.000000
0.263232 0.000000 1.000000
0.574722 0.000000 1.000000
0.875222 0.000000 1.000000
1.000000 0.000000 1.000000
0.000000 0.244137 1.000000
0.250992 0.240371 1.000000
0.562482 0.236577 1.000000
0.862983 0.232916 1.000000
1.000000 0.229763 1.000000
0.000000 0.536319 1.000000
0.238665 0.532552 1.000000
0.550155 0.528758 1.000000
0.850655 0.525098 1.000000
1.000000 0.521944 1.000000
0.000000 0.823268 1.000000
0.226558 0.819502 1.000000
0.538048 0.815708 1.000000
0.838548 0.812047 1.000000
1.000000 0.808894 1.000000
0.000000 1.000000 1.000000
0.216314 1.000000 1.000000
0.527804 1.000000 1.000000
0.828305 1.000000 1.000000
1.000000 1.000000 1.000000
