luts/USTA-TRT2-Belgesel.cube
# USTA TRT-2 Belgesel
# Creative LUT — Input LUT'un USTUNE. S-Log decode yok.
# Generated by USTA Colorist
LUT_3D_SIZE 17
DOMAIN_MIN 0.0 0.0 0.0
DOMAIN_MAX 1.0 1.0 1.0
0.000000 0.000000 0.000000
0.035749 0.000000 0.000000
0.112978 0.000000 0.000000
0.190350 0.000000 0.000000
0.267865 0.000000 0.000000
0.345523 0.000000 0.000000
0.423324 0.000000 0.000000
0.501268 0.000000 0.000000
0.579355 0.000000 0.000000
0.657585 0.000000 0.000000
0.735959 0.000000 0.000000
0.814475 0.000000 0.000000
0.879855 0.000000 0.000000
0.944443 0.000000 0.000000
1.000000 0.000000 0.000000
1.000000 0.000000 0.000000
1.000000 0.000000 0.000000
0.000000 0.030996 0.000000
0.032698 0.030057 0.000000
0.109926 0.029116 0.000000
0.187298 0.028174 0.000000
0.264813 0.027229 0.000000
0.342471 0.026283 0.000000
0.420272 0.025336 0.000000
0.498216 0.024386 0.000000
0.576303 0.023435 0.000000
0.654534 0.022482 0.000000
0.732907 0.021528 0.000000
0.811423 0.020571 0.000000
0.876803 0.019775 0.000000
0.941391 0.018988 0.000000
1.000000 0.018200 0.000000
1.000000 0.017411 0.000000
1.000000 0.016621 0.000000
0.000000 0.103457 0.000000
0.029640 0.102518 0.000000
0.106869 0.101578 0.000000
0.184241 0.100635 0.000000
0.261756 0.099691 0.000000
0.339414 0.098745 0.000000
0.417215 0.097797 0.000000
0.495159 0.096848 0.000000
0.573246 0.095897 0.000000
0.651476 0.094944 0.000000
0.729850 0.093989 0.000000
0.808366 0.093033 0.000000
0.873746 0.092237 0.000000
0.938334 0.091450 0.000000
1.000000 0.090662 0.000000
1.000000 0.089873 0.000000
1.000000 0.089083 0.000000
0.000000 0.176049 0.000000
0.026578 0.175110 0.000000
0.103806 0.174169 0.000000
0.181178 0.173227 0.000000
0.258693 0.172282 0.000000
0.336351 0.171337 0.000000
0.414152 0.170389 0.000000
0.492096 0.169439 0.000000
0.570183 0.168488 0.000000
0.648414 0.167535 0.000000
0.726787 0.166581 0.000000
0.805303 0.165624 0.000000
0.870683 0.164828 0.000000
0.935271 0.164041 0.000000
0.999955 0.163253 0.000000
1.000000 0.162464 0.000000
1.000000 0.161674 0.000000
0.000000 0.248770 0.000000
0.023509 0.247831 0.000000
0.100738 0.246890 0.000000
0.178110 0.245948 0.000000
0.255625 0.245004 0.000000
0.333283 0.244058 0.000000
0.411084 0.243110 0.000000
0.489028 0.242161 0.000000
0.567115 0.241209 0.000000
0.645345 0.240257 0.000000
0.723719 0.239302 0.000000
0.802235 0.238346 0.000000
0.867615 0.237549 0.000000
0.932203 0.236762 0.000000
0.996887 0.235975 0.000000
1.000000 0.235186 0.000000
1.000000 0.234395 0.000000
0.000000 0.321621 0.000000
0.020436 0.320682 0.000000
0.097664 0.319741 0.000000
0.175036 0.318799 0.000000
0.252551 0.317854 0.000000
0.330209 0.316908 0.000000
0.408010 0.315961 0.000000
0.485954 0.315011 0.000000
0.564042 0.314060 0.000000
0.642272 0.313107 0.000000
0.720645 0.312153 0.000000
0.799162 0.311196 0.000000
0.864542 0.310400 0.000000
0.929129 0.309613 0.000000
0.993813 0.308825 0.000000
1.000000 0.308036 0.000000
1.000000 0.307246 0.000000
0.000000 0.394601 0.000000
0.017357 0.393662 0.000000
0.094585 0.392722 0.000000
0.171957 0.391779 0.000000
0.249472 0.390835 0.000000
0.327130 0.389889 0.000000
0.404931 0.388941 0.000000
0.482875 0.387992 0.000000
0.560962 0.387041 0.000000
0.639193 0.386088 0.000000
0.717566 0.385133 0.000000
0.796082 0.384177 0.000000
0.861462 0.383381 0.000000
0.926050 0.382594 0.000000
0.990734 0.381806 0.000000
1.000000 0.381017 0.000000
1.000000 0.380227 0.000000
0.000000 0.467711 0.000000
0.014272 0.466772 0.000000
0.091501 0.465832 0.000000
0.168873 0.464889 0.000000
0.246387 0.463945 0.000000
0.324045 0.462999 0.000000
0.401846 0.462052 0.000000
0.479791 0.461102 0.000000
0.557878 0.460151 0.000000
0.636108 0.459198 0.000000
0.714481 0.458244 0.000000
0.792998 0.457287 0.000000
0.858378 0.456491 0.000000
0.922966 0.455704 0.000000
0.987650 0.454916 0.000000
1.000000 0.454127 0.000000
1.000000 0.453337 0.000000
0.000000 0.540951 0.000000
0.011182 0.540012 0.000000
0.088411 0.539072 0.000000
0.165783 0.538129 0.000000
0.243297 0.537185 0.000000
0.320955 0.536239 0.000000
0.398756 0.535292 0.000000
0.476701 0.534342 0.000000
0.554788 0.533391 0.000000
0.633018 0.532438 0.000000
0.711391 0.531484 0.000000
0.789908 0.530527 0.000000
0.855288 0.529731 0.000000
0.919876 0.528944 0.000000
0.984560 0.528156 0.000000
1.000000 0.527367 0.000000
1.000000 0.526577 0.000000
0.000000 0.614321 0.000000
0.008086 0.613382 0.000000
0.085315 0.612441 0.000000
0.162687 0.611499 0.000000
0.240202 0.610555 0.000000
0.317860 0.609609 0.000000
0.395661 0.608661 0.000000
0.473605 0.607712 0.000000
0.551692 0.606761 0.000000
0.629922 0.605808 0.000000
0.708296 0.604853 0.000000
0.786812 0.603897 0.000000
0.852192 0.603101 0.000000
0.916780 0.602314 0.000000
0.981464 0.601526 0.000000
1.000000 0.600737 0.000000
1.000000 0.599947 0.000000
0.000000 0.687821 0.000000
0.004985 0.686882 0.000000
0.082214 0.685941 0.000000
0.159586 0.684998 0.000000
0.237101 0.684054 0.000000
0.314759 0.683108 0.000000
0.392560 0.682161 0.000000
0.470504 0.681211 0.000000
0.548591 0.680260 0.000000
0.626821 0.679307 0.000000
0.705195 0.678353 0.000000
0.783711 0.677396 0.000000
0.849091 0.676600 0.000000
0.913679 0.675813 0.000000
0.978363 0.675025 0.000000
1.000000 0.674236 0.000000
1.000000 0.673446 0.000000
0.000000 0.761450 0.000000
0.001879 0.760511 0.000000
0.079108 0.759570 0.000000
0.156479 0.758628 0.000000
0.233994 0.757683 0.000000
0.311652 0.756738 0.000000
0.389453 0.755790 0.000000
0.467397 0.754840 0.000000
0.545485 0.753889 0.000000
0.623715 0.752936 0.000000
0.702088 0.751982 0.000000
0.780605 0.751025 0.000000
0.845985 0.750229 0.000000
0.910573 0.749442 0.000000
0.975257 0.748654 0.000000
1.000000 0.747865 0.000000
1.000000 0.747075 0.000000
0.000000 0.827901 0.000000
0.000000 0.826962 0.000000
0.076304 0.826021 0.000000
0.153676 0.825079 0.000000
0.231191 0.824135 0.000000
0.308849 0.823189 0.000000
0.386650 0.822241 0.000000
0.464594 0.821292 0.000000
0.542681 0.820340 0.000000
0.620911 0.819388 0.000000
0.699285 0.818433 0.000000
0.777801 0.817477 0.000000
0.843181 0.816680 0.000000
0.907769 0.815893 0.000000
0.972453 0.815106 0.000000
1.000000 0.814316 0.000000
1.000000 0.813526 0.000000
0.000000 0.888469 0.000000
0.000000 0.887530 0.000000
0.073749 0.886590 0.000000
0.151120 0.885647 0.000000
0.228635 0.884703 0.000000
0.306293 0.883757 0.000000
0.384094 0.882809 0.000000
0.462038 0.881860 0.000000
0.540126 0.880909 0.000000
0.618356 0.879956 0.000000
0.696729 0.879001 0.000000
0.775246 0.878045 0.000000
0.840626 0.877249 0.000000
0.905213 0.876462 0.000000
0.969897 0.875674 0.000000
1.000000 0.874885 0.000000
1.000000 0.874095 0.000000
0.000000 0.949125 0.000000
0.000000 0.948186 0.000000
0.071189 0.947245 0.000000
0.148561 0.946303 0.000000
0.226076 0.945359 0.000000
0.303734 0.944413 0.000000
0.381535 0.943465 0.000000
0.459479 0.942516 0.000000
0.537566 0.941565 0.000000
0.615797 0.940612 0.000000
0.694170 0.939657 0.000000
0.772686 0.938701 0.000000
0.838067 0.937904 0.000000
0.902654 0.937118 0.000000
0.967338 0.936330 0.000000
1.000000 0.935541 0.000000
1.000000 0.934751 0.000000
0.000000 1.000000 0.000000
0.000000 1.000000 0.000000
0.068627 1.000000 0.000000
0.145998 1.000000 0.000000
0.223513 1.000000 0.000000
0.301171 1.000000 0.000000
0.378972 1.000000 0.000000
0.456916 1.000000 0.000000
0.535004 1.000000 0.000000
0.613234 1.000000 0.000000
0.691607 1.000000 0.000000
0.770124 0.999444 0.000000
0.835504 0.998647 0.000000
0.900092 0.997861 0.000000
0.964775 0.997073 0.000000
1.000000 0.996284 0.000000
1.000000 0.995494 0.000000
0.000000 1.000000 0.000000
0.000000 1.000000 0.000000
0.066060 1.000000 0.000000
0.143432 1.000000 0.000000
0.220947 1.000000 0.000000
0.298605 1.000000 0.000000
0.376406 1.000000 0.000000
0.454350 1.000000 0.000000
0.532437 1.000000 0.000000
0.610667 1.000000 0.000000
0.689041 1.000000 0.000000
0.767557 1.000000 0.000000
0.832937 1.000000 0.000000
0.897525 1.000000 0.000000
0.962209 1.000000 0.000000
1.000000 1.000000 0.000000
1.000000 1.000000 0.000000
0.000000 0.000000 0.031861
0.035449 0.000000 0.030922
0.112678 0.000000 0.029981
0.190049 0.000000 0.029039
0.267564 0.000000 0.028095
0.345222 0.000000 0.027149
0.423023 0.000000 0.026201
0.500967 0.000000 0.025252
0.579055 0.000000 0.024300
0.657285 0.000000 0.023348
0.735658 0.000000 0.022393
0.814175 0.000000 0.021437
0.879555 0.000000 0.020640
0.944143 0.000000 0.019853
1.000000 0.000000 0.019066
1.000000 0.000000 0.018276
1.000000 0.000000 0.017486
0.000000 0.030695 0.028809
0.032397 0.029756 0.027870
0.109626 0.028816 0.026929
0.186998 0.027873 0.025987
0.264513 0.026929 0.025043
0.342171 0.025983 0.024097
0.419972 0.025035 0.023149
0.497916 0.024086 0.022200
0.576003 0.023135 0.021249
0.654233 0.022182 0.020296
0.732607 0.021227 0.019341
0.811123 0.020271 0.018385
0.876503 0.019475 0.017588
0.941091 0.018688 0.016802
1.000000 0.017900 0.016014
1.000000 0.017111 0.015225
1.000000 0.016321 0.014435
0.000000 0.103157 0.025752
0.029340 0.102218 0.024813
0.106569 0.101277 0.023872
0.183940 0.100335 0.022930
0.261455 0.099391 0.021986
0.339113 0.098445 0.021040
0.416914 0.097497 0.020092
0.494858 0.096548 0.019143
0.572946 0.095597 0.018191
0.651176 0.094644 0.017239
0.729549 0.093689 0.016284
0.808066 0.092733 0.015328
0.873446 0.091936 0.014531
0.938034 0.091150 0.013744
1.000000 0.090362 0.012957
1.000000 0.089573 0.012167
1.000000 0.088782 0.011377
0.000000 0.175748 0.022689
0.026277 0.174809 0.021750
0.103506 0.173869 0.020809
0.180878 0.172926 0.019867
0.258393 0.171982 0.018923
0.336051 0.171036 0.017977
0.413852 0.170088 0.017029
0.491796 0.169139 0.016080
0.569883 0.168188 0.015129
0.648113 0.167235 0.014176
0.726487 0.166280 0.013221
0.805003 0.165324 0.012265
0.870383 0.164528 0.011468
0.934971 0.163741 0.010682
0.999655 0.162953 0.009894
1.000000 0.162164 0.009105
1.000000 0.161374 0.008315
0.000000 0.248469 0.019621
0.023209 0.247530 0.018682
0.100438 0.246590 0.017741
0.177810 0.245647 0.016799
0.255324 0.244703 0.015855
0.332982 0.243757 0.014909
0.410783 0.242810 0.013961
0.488728 0.241860 0.013012
0.566815 0.240909 0.012061
0.645045 0.239956 0.011108
0.723418 0.239002 0.010153
0.801935 0.238045 0.009197
0.867315 0.237249 0.008400
0.931903 0.236462 0.007614
0.996587 0.235674 0.006826
1.000000 0.234885 0.006037
1.000000 0.234095 0.005246
0.000000 0.321320 0.016547
0.020135 0.320381 0.015608
0.097364 0.319441 0.014668
0.174736 0.318498 0.013725
0.252251 0.317554 0.012781
0.329909 0.316608 0.011835
0.407710 0.315660 0.010887
0.485654 0.314711 0.009938
0.563741 0.313760 0.008987
0.641971 0.312807 0.008034
0.720345 0.311852 0.007079
0.798861 0.310896 0.006123
0.864241 0.310100 0.005327
0.928829 0.309313 0.004540
0.993513 0.308525 0.003752
1.000000 0.307736 0.002963
1.000000 0.306946 0.002173
0.000000 0.394301 0.013468
0.017056 0.393362 0.012529
0.094285 0.392421 0.011588
0.171657 0.391479 0.010646
0.249172 0.390535 0.009702
0.326830 0.389589 0.008756
0.404631 0.388641 0.007808
0.482575 0.387692 0.006859
0.560662 0.386740 0.005908
0.638892 0.385788 0.004955
0.717266 0.384833 0.004000
0.795782 0.383877 0.003044
0.861162 0.383080 0.002247
0.925750 0.382293 0.001461
0.990434 0.381506 0.000673
1.000000 0.380717 0.000000
1.000000 0.379926 0.000000
0.000000 0.467411 0.010384
0.013972 0.466472 0.009445
0.091200 0.465531 0.008504
0.168572 0.464589 0.007561
0.246087 0.463645 0.006617
0.323745 0.462699 0.005671
0.401546 0.461751 0.004724
0.479490 0.460802 0.003774
0.557577 0.459851 0.002823
0.635808 0.458898 0.001870
0.714181 0.457943 0.000916
0.792697 0.456987 0.000000
0.858078 0.456190 0.000000
0.922665 0.455404 0.000000
0.987349 0.454616 0.000000
1.000000 0.453827 0.000000
1.000000 0.453037 0.000000
0.000000 0.540651 0.007293
0.010882 0.539712 0.006354
0.088110 0.538771 0.005414
0.165482 0.537829 0.004471
0.242997 0.536885 0.003527
0.320655 0.535939 0.002581
0.398456 0.534991 0.001634
0.476400 0.534042 0.000684
0.554487 0.533091 0.000000
0.632718 0.532138 0.000000
0.711091 0.531183 0.000000
0.789607 0.530227 0.000000
0.854987 0.529430 0.000000
0.919575 0.528644 0.000000
0.984259 0.527856 0.000000
1.000000 0.527067 0.000000
1.000000 0.526277 0.000000
0.000000 0.614021 0.004198
0.007786 0.613082 0.003259
0.085015 0.612141 0.002318
0.162387 0.611199 0.001376
0.239901 0.610255 0.000432
0.317559 0.609309 0.000000
0.395360 0.608361 0.000000
0.473305 0.607412 0.000000
0.551392 0.606460 0.000000
0.629622 0.605508 0.000000
0.707995 0.604553 0.000000
0.786512 0.603597 0.000000
0.851892 0.602800 0.000000
0.916480 0.602013 0.000000
0.981164 0.601226 0.000000
1.000000 0.600436 0.000000
1.000000 0.599646 0.000000
0.000000 0.687520 0.001097
0.004685 0.686581 0.000158
0.081914 0.685641 0.000000
0.159286 0.684698 0.000000
0.236800 0.683754 0.000000
0.314458 0.682808 0.000000
0.392259 0.681860 0.000000
0.470204 0.680911 0.000000
0.548291 0.679960 0.000000
0.626521 0.679007 0.000000
0.704894 0.678052 0.000000
0.783411 0.677096 0.000000
0.848791 0.676300 0.000000
0.913379 0.675513 0.000000
0.978063 0.674725 0.000000
1.000000 0.673936 0.000000
1.000000 0.673146 0.000000
0.000000 0.761149 0.000000
0.001579 0.760210 0.000000
0.078807 0.759270 0.000000
0.156179 0.758327 0.000000
0.233694 0.757383 0.000000
0.311352 0.756437 0.000000
0.389153 0.755490 0.000000
0.467097 0.754540 0.000000
0.545184 0.753589 0.000000
0.623415 0.752636 0.000000
0.701788 0.751681 0.000000
0.780304 0.750725 0.000000
0.845684 0.749929 0.000000
0.910272 0.749142 0.000000
0.974956 0.748354 0.000000
1.000000 0.747565 0.000000
1.000000 0.746775 0.000000
0.000000 0.827600 0.000000
0.000000 0.826661 0.000000
0.076004 0.825721 0.000000
0.153375 0.824778 0.000000
0.230890 0.823834 0.000000
0.308548 0.822888 0.000000
0.386349 0.821941 0.000000
0.464293 0.820991 0.000000
0.542381 0.820040 0.000000
0.620611 0.819087 0.000000
0.698984 0.818133 0.000000
0.777501 0.817176 0.000000
0.842881 0.816380 0.000000
0.907469 0.815593 0.000000
0.972153 0.814805 0.000000
1.000000 0.814016 0.000000
1.000000 0.813226 0.000000
0.000000 0.888169 0.000000
0.000000 0.887230 0.000000
0.073448 0.886289 0.000000
0.150820 0.885347 0.000000
0.228335 0.884403 0.000000
0.305993 0.883457 0.000000
0.383794 0.882509 0.000000
0.461738 0.881560 0.000000
0.539825 0.880609 0.000000
0.618055 0.879656 0.000000
0.696429 0.878701 0.000000
0.774945 0.877745 0.000000
0.840325 0.876948 0.000000
0.904913 0.876162 0.000000
0.969597 0.875374 0.000000
1.000000 0.874585 0.000000
1.000000 0.873794 0.000000
0.000000 0.948825 0.000000
0.000000 0.947886 0.000000
0.070889 0.946945 0.000000
0.148261 0.946003 0.000000
0.225776 0.945058 0.000000
0.303434 0.944113 0.000000
0.381235 0.943165 0.000000
0.459179 0.942215 0.000000
0.537266 0.941264 0.000000
0.615496 0.940311 0.000000
0.693870 0.939357 0.000000
0.772386 0.938400 0.000000
0.837766 0.937604 0.000000
0.902354 0.936817 0.000000
0.967038 0.936029 0.000000
1.000000 0.935240 0.000000
1.000000 0.934450 0.000000
0.000000 1.000000 0.000000
0.000000 1.000000 0.000000
0.068326 1.000000 0.000000
0.145698 1.000000 0.000000
0.223213 1.000000 0.000000
0.300871 1.000000 0.000000
0.378672 1.000000 0.000000
0.456616 1.000000 0.000000
0.534703 1.000000 0.000000
0.612934 1.000000 0.000000
0.691307 1.000000 0.000000
0.769823 0.999143 0.000000
0.835203 0.998347 0.000000
0.899791 0.997560 0.000000
0.964475 0.996772 0.000000
1.000000 0.995983 0.000000
1.000000 0.995193 0.000000
0.000000 1.000000 0.000000
0.000000 1.000000 0.000000
0.065760 1.000000 0.000000
0.143132 1.000000 0.000000
0.220646 1.000000 0.000000
0.298304 1.000000 0.000000
0.376105 1.000000 0.000000
0.454050 1.000000 0.000000
0.532137 1.000000 0.000000
0.610367 1.000000 0.000000
0.688740 1.000000 0.000000
0.767257 1.000000 0.000000
0.832637 1.000000 0.000000
0.897225 1.000000 0.000000
0.961909 1.000000 0.000000
1.000000 1.000000 0.000000
1.000000 1.000000 0.000000
0.000000 0.000000 0.105186
0.035148 0.000000 0.104247
0.112377 0.000000 0.103306
0.189749 0.000000 0.102364
0.267263 0.000000 0.101420
0.344921 0.000000 0.100474
0.422722 0.000000 0.099526
0.500667 0.000000 0.098577
0.578754 0.000000 0.097626
0.656984 0.000000 0.096673
0.735357 0.000000 0.095718
0.813874 0.000000 0.094762
0.879254 0.000000 0.093965
0.943842 0.000000 0.093179
1.000000 0.000000 0.092391
1.000000 0.000000 0.091602
1.000000 0.000000 0.090811
0.000000 0.030394 0.102134
0.032096 0.029455 0.101195
0.109325 0.028515 0.100254
0.186697 0.027572 0.099312
0.264212 0.026628 0.098368
0.341870 0.025682 0.097422
0.419671 0.024735 0.096474
0.497615 0.023785 0.095525
0.575702 0.022834 0.094574
0.653932 0.021881 0.093621
0.732306 0.020926 0.092666
0.810822 0.019970 0.091710
0.876202 0.019174 0.090913
0.940790 0.018387 0.090127
1.000000 0.017599 0.089339
1.000000 0.016810 0.088550
1.000000 0.016020 0.087760
0.000000 0.102856 0.099077
0.029039 0.101917 0.098138
0.106268 0.100976 0.097197
0.183640 0.100034 0.096255
0.261154 0.099090 0.095311
0.338812 0.098144 0.094365
0.416613 0.097196 0.093417
0.494558 0.096247 0.092468
0.572645 0.095296 0.091517
0.650875 0.094343 0.090564
0.729248 0.093388 0.089609
0.807765 0.092432 0.088653
0.873145 0.091635 0.087856
0.937733 0.090849 0.087070
1.000000 0.090061 0.086282
1.000000 0.089272 0.085493
1.000000 0.088482 0.084702
0.000000 0.175447 0.096014
0.025976 0.174508 0.095075
0.103205 0.173568 0.094135
0.180577 0.172625 0.093192
0.258092 0.171681 0.092248
0.335750 0.170735 0.091302
0.413551 0.169788 0.090354
0.491495 0.168838 0.089405
0.569582 0.167887 0.088454
0.647812 0.166934 0.087501
0.726186 0.165980 0.086546
0.804702 0.165023 0.085590
0.870082 0.164227 0.084794
0.934670 0.163440 0.084007
0.999354 0.162652 0.083219
1.000000 0.161863 0.082430
1.000000 0.161073 0.081640
0.000000 0.248169 0.092946
0.022908 0.247230 0.092007
0.100137 0.246289 0.091066
0.177509 0.245346 0.090124
0.255024 0.244402 0.089180
0.332682 0.243456 0.088234
0.410483 0.242509 0.087286
0.488427 0.241559 0.086337
0.566514 0.240608 0.085386
0.644744 0.239655 0.084433
0.723118 0.238701 0.083478
0.801634 0.237744 0.082522
0.867014 0.236948 0.081725
0.931602 0.236161 0.080939
0.996286 0.235373 0.080151
1.000000 0.234584 0.079362
1.000000 0.233794 0.078571
0.000000 0.321019 0.089872
0.019835 0.320080 0.088933
0.097063 0.319140 0.087993
0.174435 0.318197 0.087050
0.251950 0.317253 0.086106
0.329608 0.316307 0.085160
0.407409 0.315360 0.084213
0.485353 0.314410 0.083263
0.563440 0.313459 0.082312
0.641671 0.312506 0.081359
0.720044 0.311551 0.080404
0.798560 0.310595 0.079448
0.863940 0.309799 0.078652
0.928528 0.309012 0.077865
0.993212 0.308224 0.077077
1.000000 0.307435 0.076288
1.000000 0.306645 0.075498
0.000000 0.394000 0.086793
0.016755 0.393061 0.085854
0.093984 0.392120 0.084914
0.171356 0.391178 0.083971
0.248871 0.390234 0.083027
0.326529 0.389288 0.082081
0.404330 0.388340 0.081133
0.482274 0.387391 0.080184
0.560361 0.386440 0.079233
0.638591 0.385487 0.078280
0.716965 0.384532 0.077325
0.795481 0.383576 0.076369
0.860861 0.382779 0.075573
0.925449 0.381993 0.074786
0.990133 0.381205 0.073998
1.000000 0.380416 0.073209
1.000000 0.379625 0.072419
0.000000 0.467110 0.083709
0.013671 0.466171 0.082770
0.090900 0.465231 0.081829
0.168271 0.464288 0.080887
0.245786 0.463344 0.079942
0.323444 0.462398 0.078996
0.401245 0.461450 0.078049
0.479189 0.460501 0.077099
0.557277 0.459550 0.076148
0.635507 0.458597 0.075195
0.713880 0.457642 0.074241
0.792397 0.456686 0.073284
0.857777 0.455890 0.072488
0.922364 0.455103 0.071701
0.987048 0.454315 0.070913
1.000000 0.453526 0.070124
1.000000 0.452736 0.069334
0.000000 0.540350 0.080619
0.010581 0.539411 0.079680
0.087809 0.538471 0.078739
0.165181 0.537528 0.077796
0.242696 0.536584 0.076852
0.320354 0.535638 0.075906
0.398155 0.534690 0.074959
0.476099 0.533741 0.074009
0.554186 0.532790 0.073058
0.632417 0.531837 0.072105
0.710790 0.530882 0.071151
0.789306 0.529926 0.070194
0.854687 0.529130 0.069398
0.919274 0.528343 0.068611
0.983958 0.527555 0.067823
1.000000 0.526766 0.067034
1.000000 0.525976 0.066244
0.000000 0.613720 0.077523
0.007485 0.612781 0.076584
0.084714 0.611840 0.075643
0.162086 0.610898 0.074701
0.239601 0.609954 0.073757
0.317259 0.609008 0.072811
0.395060 0.608060 0.071863
0.473004 0.607111 0.070914
0.551091 0.606160 0.069963
0.629321 0.605207 0.069010
0.707695 0.604252 0.068055
0.786211 0.603296 0.067099
0.851591 0.602499 0.066302
0.916179 0.601713 0.065516
0.980863 0.600925 0.064728
1.000000 0.600136 0.063939
1.000000 0.599345 0.063148
0.000000 0.687219 0.074422
0.004384 0.686280 0.073483
0.081613 0.685340 0.072542
0.158985 0.684397 0.071600
0.236500 0.683453 0.070656
0.314158 0.682507 0.069710
0.391959 0.681559 0.068762
0.469903 0.680610 0.067813
0.547990 0.679659 0.066862
0.626220 0.678706 0.065909
0.704594 0.677751 0.064954
0.783110 0.676795 0.063998
0.848490 0.675999 0.063201
0.913078 0.675212 0.062415
0.977762 0.674424 0.061627
1.000000 0.673635 0.060838
1.000000 0.672845 0.060047
0.000000 0.760848 0.071315
0.001278 0.759909 0.070377
0.078506 0.758969 0.069436
0.155878 0.758026 0.068493
0.233393 0.757082 0.067549
0.311051 0.756136 0.066603
0.388852 0.755189 0.065656
0.466796 0.754239 0.064706
0.544883 0.753288 0.063755
0.623114 0.752335 0.062802
0.701487 0.751381 0.061848
0.780003 0.750424 0.060891
0.845384 0.749628 0.060095
0.909971 0.748841 0.059308
0.974655 0.748053 0.058520
1.000000 0.747264 0.057731
1.000000 0.746474 0.056941
0.000000 0.827299 0.068512
0.000000 0.826361 0.067573
0.075703 0.825420 0.066632
0.153075 0.824477 0.065690
0.230589 0.823533 0.064746
0.308247 0.822587 0.063800
0.386048 0.821640 0.062852
0.463993 0.820690 0.061903
0.542080 0.819739 0.060951
0.620310 0.818786 0.059999
0.698683 0.817832 0.059044
0.777200 0.816875 0.058088
0.842580 0.816079 0.057291
0.907168 0.815292 0.056505
0.971852 0.814504 0.055717
1.000000 0.813715 0.054928
1.000000 0.812925 0.054137
0.000000 0.887868 0.065956
0.000000 0.886929 0.065017
0.073147 0.885988 0.064077
0.150519 0.885046 0.063134
0.228034 0.884102 0.062190
0.305692 0.883156 0.061244
0.383493 0.882208 0.060297
0.461437 0.881259 0.059347
0.539524 0.880308 0.058396
0.617755 0.879355 0.057443
0.696128 0.878400 0.056489
0.774644 0.877444 0.055532
0.840024 0.876647 0.054736
0.904612 0.875861 0.053949
0.969296 0.875073 0.053161
1.000000 0.874284 0.052372
1.000000 0.873494 0.051582
0.000000 0.948524 0.063397
0.000000 0.947585 0.062458
0.070588 0.946644 0.061518
0.147960 0.945702 0.060575
0.225475 0.944758 0.059631
0.303133 0.943812 0.058685
0.380934 0.942864 0.057737
0.458878 0.941915 0.056788
0.536965 0.940963 0.055837
0.615195 0.940011 0.054884
0.693569 0.939056 0.053929
0.772085 0.938100 0.052973
0.837465 0.937303 0.052177
0.902053 0.936516 0.051390
0.966737 0.935729 0.050602
1.000000 0.934940 0.049813
1.000000 0.934149 0.049023
0.000000 1.000000 0.060834
0.000000 1.000000 0.059896
0.068025 1.000000 0.058955
0.145397 1.000000 0.058012
0.222912 1.000000 0.057068
0.300570 1.000000 0.056122
0.378371 1.000000 0.055175
0.456315 1.000000 0.054225
0.534402 1.000000 0.053274
0.612633 1.000000 0.052321
0.691006 0.999799 0.051367
0.769522 0.998843 0.050410
0.834902 0.998046 0.049614
0.899490 0.997259 0.048827
0.964174 0.996472 0.048039
1.000000 0.995682 0.047250
1.000000 0.994892 0.046460
0.000000 1.000000 0.058268
0.000000 1.000000 0.057329
0.065459 1.000000 0.056388
0.142831 1.000000 0.055446
0.220346 1.000000 0.054502
0.298004 1.000000 0.053556
0.375805 1.000000 0.052608
0.453749 1.000000 0.051659
0.531836 1.000000 0.050708
0.610066 1.000000 0.049755
0.688440 1.000000 0.048800
0.766956 1.000000 0.047844
0.832336 1.000000 0.047047
0.896924 1.000000 0.046261
0.961608 1.000000 0.045473
1.000000 1.000000 0.044684
1.000000 1.000000 0.043893
0.000000 0.000000 0.178639
0.034847 0.000000 0.177700
0.112075 0.000000 0.176759
0.189447 0.000000 0.175817
0.266962 0.000000 0.174873
0.344620 0.000000 0.173927
0.422421 0.000000 0.172979
0.500365 0.000000 0.172030
0.578452 0.000000 0.171079
0.656683 0.000000 0.170126
0.735056 0.000000 0.169171
0.813572 0.000000 0.168215
0.878952 0.000000 0.167418
0.943540 0.000000 0.166632
1.000000 0.000000 0.165844
